universal/android/plans.svg

<svg xmlns="http://www.w3.org/2000/svg" viewBox="0 0 24 24"><path fill-rule="evenodd" clip-rule="evenodd" d="M20 4H4v16h16V4zM2 2v20h20V2H2z"/><path fill-rule="evenodd" clip-rule="evenodd" d="M16 9H8V7h8v2zM16 13H8v-2h8v2zM16 17H8v-2h8v2z"/></svg>

<svg width="24" height="24" viewBox="0 0 24 24" fill="none" xmlns="http://www.w3.org/2000/svg">
<path fill-rule="evenodd" clip-rule="evenodd" d="M20 4H4V20H20V4ZM2 2V22H22V2H2Z" fill="black"/>
<path fill-rule="evenodd" clip-rule="evenodd" d="M16 9H8V7H16V9Z" fill="black"/>
<path fill-rule="evenodd" clip-rule="evenodd" d="M16 13H8V11H16V13Z" fill="black"/>
<path fill-rule="evenodd" clip-rule="evenodd" d="M16 17H8V15H16V17Z" fill="black"/>
</svg>
